X:1
T:Polka
T:x
T:x
T:x
T:x
Z:x
%%score { 1 | 2 }
L:1/8
M:2/4
K:G
V:1 treble nm="Piano" snm="Pno."
V:2 bass 
V:1
 BD BD | B/A/A/^G/ A2 | cD cD | c/B/B/^A/ B2 | dg g/g/f/g/ | f/c/c/B/ c2 | cf f/f/e/f/ | %7
 e/B/B/^A/ B2 | BD BD | B/A/A/^G/ A2 | cD ce | e/^d/d/^^c/ d^A/B/ | g^A/B/ f^d/e/ | d/^c/d/g/ B2 | %14
 c/B/c/e/ E/^D/E/F/ | G[DB] [B,G] z | z4 | z4 | z4 | z4 | z4 | z4 | z4 | z4 | z4 | z4 | z4 | z4 | %28
 z4 | z4 | z4 | z4 |] %32
V:2
 G,B, D,B, | F,C D,C | F,C D,C | G,B, D,B, | G,B, D,B, | A,C D,C | A,C A,F | B,A F z | E z DC | %9
 B,G ^G,E | F,C A,F | B,A F z | E z DC | B,G ^G,E | A,E CD, | G,G, G, z | z4 | z4 | z4 | z4 | z4 | %21
 z4 | z4 | z4 | z4 | z4 | z4 | z4 | z4 | z4 | z4 | z4 |] %32

